X:51
T:Sheffield Rant. JBu.51
O:England,South Yorkshire
S:Joshua Burnett’s MS,c1835,S.Yorkshire
M:4/4
L:1/8
Q:1/2=90
R:rant
N:No time sig in MS
Z:vmp.R.Greig.2011
K:A
FG|A2Ac edcB|d2df fedc|d2fdc2ec|B2B2B2ed|
c2 ce edcB|d2df fedc|eagf edcB|A2A2A2:|
|:fg|afec Acec|afec Acec|d2fdc2ec|B2BBB2ed|
cAcA edcB|dcdf fedc|eagf edcB|A2A2A2:|

